packages/icons/svg/24/FormatFontSize.svg

<svg width="24" height="24" fill="none" xmlns="http://www.w3.org/2000/svg" viewBox="0 0 24 24"><path fill-rule="evenodd" clip-rule="evenodd" d="M9 6.5c0 .83.67 1.5 1.5 1.5H14v10.5c0 .83.67 1.5 1.5 1.5s1.5-.67 1.5-1.5V8h3.5c.83 0 1.5-.67 1.5-1.5S21.33 5 20.5 5h-10C9.67 5 9 5.67 9 6.5z" fill="currentColor"></path><path fill-rule="evenodd" clip-rule="evenodd" d="M4.5 13H6v5.5c0 .83.67 1.5 1.5 1.5S9 19.33 9 18.5V13h1.5c.83 0 1.5-.67 1.5-1.5s-.67-1.5-1.5-1.5h-6c-.83 0-1.5.67-1.5 1.5S3.67 13 4.5 13z" fill="currentColor"></path></svg>

<svg width="24" height="24" viewBox="0 0 24 24" fill="none" xmlns="http://www.w3.org/2000/svg">
<path fill-rule="evenodd" clip-rule="evenodd" d="M9 6.5C9 7.33 9.67 8 10.5 8H14V18.5C14 19.33 14.67 20 15.5 20C16.33 20 17 19.33 17 18.5V8H20.5C21.33 8 22 7.33 22 6.5C22 5.67 21.33 5 20.5 5H10.5C9.67 5 9 5.67 9 6.5Z" fill="#858585"/>
<path fill-rule="evenodd" clip-rule="evenodd" d="M4.5 13H6V18.5C6 19.33 6.67 20 7.5 20C8.33 20 9 19.33 9 18.5V13H10.5C11.33 13 12 12.33 12 11.5C12 10.67 11.33 10 10.5 10H4.5C3.67 10 3 10.67 3 11.5C3 12.33 3.67 13 4.5 13Z" fill="#858585"/>
</svg>
